X:1
T:Sporting Molly
R:reel
D:Pat O'Conner
Z:Jack Gilder
M:4/4
L:1/8
K:Dmixolydian
dcAG FADF|E2 cE dEcE|dcAG FDDF|Adde fde^c|!
dcAG FADF|E2 cE dEcE|dcAG FDDF|Add^c d2de||!
f2df efge|afge afge|f2df efge|afge fdde|!
f2df efge|afge afge|afge fded|Add^c d2de||
Here's a setting of the well known tune, Maud Millar that appears many places including the &quot;Music at Matt Malloy's&quot; CD:
